src/svgs/lifebuoy.svg

<?xml version="1.0" encoding="UTF-8" standalone="no"?>
<!-- Created with Inkscape (http://www.inkscape.org/) -->

<svg
   xmlns:dc="http://purl.org/dc/elements/1.1/"
   xmlns:cc="http://creativecommons.org/ns#"
   xmlns:rdf="http://www.w3.org/1999/02/22-rdf-syntax-ns#"
   xmlns:svg="http://www.w3.org/2000/svg"
   xmlns="http://www.w3.org/2000/svg"
   xmlns:xlink="http://www.w3.org/1999/xlink"
   xmlns:sodipodi="http://sodipodi.sourceforge.net/DTD/sodipodi-0.dtd"
   xmlns:inkscape="http://www.inkscape.org/namespaces/inkscape"
   width="20"
   height="20"
   id="svg5738"
   version="1.1"
   inkscape:version="0.48.2 r9819"
   sodipodi:docname="android.svg">
  <defs
     id="defs5740">
    <linearGradient
       inkscape:collect="always"
       xlink:href="#linearGradient4103"
       id="linearGradient4184"
       gradientUnits="userSpaceOnUse"
       x1="3003"
       y1="10"
       x2="3017"
       y2="10"
       gradientTransform="translate(1,2.6171874e-6)" />
    <linearGradient
       inkscape:collect="always"
       id="linearGradient4103">
      <stop
         style="stop-color:#000000;stop-opacity:1;"
         offset="0"
         id="stop4105" />
      <stop
         style="stop-color:#000000;stop-opacity:0;"
         offset="1"
         id="stop4107" />
    </linearGradient>
  </defs>
  <sodipodi:namedview
     id="base"
     pagecolor="#ffffff"
     bordercolor="#666666"
     borderopacity="1.0"
     inkscape:pageopacity="0.0"
     inkscape:pageshadow="2"
     inkscape:zoom="22.627417"
     inkscape:cx="11.565427"
     inkscape:cy="10.553246"
     inkscape:document-units="px"
     inkscape:current-layer="layer1"
     showgrid="true"
     inkscape:window-width="1390"
     inkscape:window-height="884"
     inkscape:window-x="20"
     inkscape:window-y="20"
     inkscape:window-maximized="0"
     inkscape:object-nodes="true">
    <inkscape:grid
       type="xygrid"
       id="grid5746"
       empspacing="5"
       visible="true"
       enabled="true"
       snapvisiblegridlinesonly="true" />
  </sodipodi:namedview>
  <metadata
     id="metadata5743">
    <rdf:RDF>
      <cc:Work
         rdf:about="">
        <dc:format>image/svg+xml</dc:format>
        <dc:type
           rdf:resource="http://purl.org/dc/dcmitype/StillImage" />
        <dc:title></dc:title>
      </cc:Work>
    </rdf:RDF>
  </metadata>
  <g
     inkscape:label="Layer 1"
     inkscape:groupmode="layer"
     id="layer1"
     transform="translate(0,-1032.3622)">
    <path
       style="color:#000000;fill:#000000;fill-opacity:1;fill-rule:nonzero;stroke:none;stroke-width:1;marker:none;visibility:visible;display:inline;overflow:visible;enable-background:accumulate"
       d="M 9 3 C 6 3 3 6 3 9 L 7 9 L 7.1875 9 C 7.489489 8.1581238 8.1581238 7.489489 9 7.1875 L 9 7 L 9 3 z M 11 3 L 11 7 L 11 7.1875 C 11.841876 7.489489 12.510511 8.1581238 12.8125 9 L 13 9 L 17 9 C 17 6 14 3 11 3 z M 3 11 C 3 14 6 17 9 17 L 9 13 L 9 12.8125 C 8.1581238 12.510511 7.489489 11.841876 7.1875 11 L 7 11 L 3 11 z M 12.8125 11 C 12.510511 11.841876 11.841876 12.510511 11 12.8125 L 11 13 L 11 17 C 14 17 17 14 17 11 L 13 11 L 12.8125 11 z "
       transform="translate(0,1032.3622)"
       id="path5539" />
  </g>
</svg>

<?xml version="1.0" encoding="UTF-8" standalone="yes"?>
<svg viewBox="0 0 20 20">
  <path d="M9,3C6,3,3,6,3,9h4h0.2c0.3-0.8,1-1.5,1.8-1.8V7V3z M11,3v4v0.2c0.8,0.3,1.5,1,1.8,1.8H13h4C17,6,14,3,11,3z M3,11
	c0,3,3,6,6,6v-4v-0.2c-0.8-0.3-1.5-1-1.8-1.8H7H3z M12.8,11c-0.3,0.8-1,1.5-1.8,1.8V13v4c3,0,6-3,6-6h-4H12.8z"/>
</svg>
